svg/300/sharp/ev_mobiledata_badge.svg

<svg xmlns="http://www.w3.org/2000/svg" width="48" height="48" viewBox="0 -960 960 960"><path d="M217.694-290.001h217.69v-45.383H263.077v-121.924h132.307v-45.384H263.077v-121.924h172.307v-45.383h-217.69v379.998Zm373.845 0h54.23l107.307-379.998h-47.768l-86.847 310.693-86.846-310.693h-47.769l107.693 379.998Zm-531.538 150v-679.998H900v679.998H60.001Zm45.384-45.384h749.23v-589.23h-749.23v589.23Zm0 0v-589.23 589.23Z"/></svg>

<svg xmlns="http://www.w3.org/2000/svg" width="48" height="48" viewBox="0 -960 960 960"><path d="M217.69-290h217.69v-45.38h-172.3v-121.93h132.3v-45.38h-132.3v-121.93h172.3V-670H217.69v380Zm373.85 0h54.23l107.31-380h-47.77l-86.85 310.69L531.61-670h-47.76l107.69 380ZM60-140v-680h840v680H60Zm45.39-45.39h749.22v-589.22H105.39v589.22Zm0 0v-589.22 589.22Z"/></svg>
